X: 1
T: Bollin Jig
R: jig
Z: 2009 John Chambers <jc:trillian.mit.edu>
S: handwritten MS of unknown origin in folder labelled "Philly tunes"
M: 6/8
L: 1/8
K: Dmix
D \
| AGA BAB | cBc E2D | EG/G/G EA/A/A | EGA GED \
| AGA BAB | cBc g2g | fed cAG | FGE D2 :|
|: e \
| fd/d/d ed/d/d | fdd d2e | fdd edd | cAG FED \
| e/f/ge e/f/ge | bge d2^c | A^cB FGE | FDD D2 :|
